<?xml version="1.0" encoding="UTF-8"?>
<map version="1.2" tiledversion="1.2.0" orientation="orthogonal" renderorder="right-down" width="55" height="15" tilewidth="16" tileheight="16" infinite="0" nextlayerid="3" nextobjectid="1">
 <tileset firstgid="1" source="tiles.tsx"/>
 <layer id="1" name="Tile Layer 1" width="55" height="15">
  <data encoding="csv">
44,43,44,43,45,46,45,46,45,46,45,46,45,303,303,43,101,102,141,142,174,194,31,194,31,194,194,194,194,194,31,194,31,194,194,194,145,43,44,112,194,194,194,194,194,185,186,194,113,44,43,44,43,174,174,
43,44,43,44,43,44,43,44,43,44,43,44,43,174,194,44,43,44,145,146,174,194,51,194,31,194,194,194,194,194,31,194,51,194,194,194,141,101,102,174,194,194,194,194,194,194,194,194,194,43,44,43,44,174,174,
44,43,44,43,44,43,44,43,44,43,44,43,44,174,194,43,101,102,141,142,174,194,145,145,31,194,194,145,145,174,31,194,145,145,174,194,194,174,174,174,194,194,194,132,194,194,194,194,194,174,174,4,174,174,174,
43,44,43,44,43,44,43,44,43,44,43,44,43,303,303,44,43,44,145,146,174,194,141,142,51,194,194,141,142,174,51,194,141,142,174,194,194,194,194,194,194,194,194,152,194,194,194,194,194,194,194,24,194,174,174,
0,0,0,0,0,0,0,0,0,43,44,43,44,174,194,43,44,43,145,146,145,146,145,145,145,145,145,145,145,145,145,145,145,145,145,145,145,43,44,45,46,174,194,194,194,194,194,194,194,125,126,125,126,174,174,
0,0,0,0,0,0,0,0,0,44,43,44,43,303,303,44,43,44,145,142,141,142,141,142,141,142,141,142,141,142,141,142,141,142,141,142,141,44,43,43,44,174,194,194,194,194,194,194,194,121,122,121,122,174,174,
0,0,0,0,0,0,0,0,0,43,44,43,44,174,194,43,44,43,142,141,142,141,142,141,142,141,142,141,142,141,142,141,142,141,142,141,145,43,101,102,44,46,45,46,45,46,45,194,194,122,121,122,121,174,174,
0,0,0,0,0,0,0,0,0,44,43,44,43,303,303,44,43,44,145,142,141,142,141,142,141,142,141,142,141,142,141,142,141,142,141,142,141,44,43,44,43,44,43,44,43,44,43,303,303,121,122,121,122,174,174,
0,0,0,0,0,0,0,0,0,43,44,43,44,174,194,43,44,194,142,141,142,141,142,141,142,141,142,141,142,141,142,141,142,141,142,141,142,43,101,102,44,174,174,174,174,174,174,194,194,122,121,122,121,174,174,
0,0,0,0,0,0,0,0,0,44,43,44,43,303,303,44,43,194,194,194,194,194,194,194,194,194,194,194,194,194,194,194,194,194,194,194,194,44,43,44,43,44,43,44,43,44,43,303,303,121,122,121,122,174,174,
0,0,0,0,0,0,0,0,0,43,44,43,44,174,194,43,44,43,44,43,44,43,44,43,44,43,44,43,44,43,44,43,44,43,44,43,44,43,44,43,44,43,44,43,44,43,44,194,194,122,121,122,121,174,174,
0,0,0,0,0,0,0,0,0,44,43,44,43,303,303,44,43,44,43,44,43,44,43,44,43,44,43,44,43,44,43,44,43,44,43,44,43,44,43,44,43,44,43,101,102,101,102,303,303,121,122,121,122,174,174,
0,0,0,0,0,0,0,0,0,43,44,43,44,174,194,174,174,174,174,174,174,174,174,174,174,43,44,43,44,174,174,174,174,174,165,166,174,174,174,43,101,102,44,174,174,174,174,174,194,174,174,122,121,174,174,
0,0,0,0,0,0,0,0,0,44,43,44,43,303,303,194,38,39,194,194,194,38,39,194,113,44,43,44,43,112,194,194,194,194,185,186,194,194,113,44,43,44,43,112,194,194,194,303,303,194,113,121,122,174,174,
0,0,0,0,0,0,0,0,0,43,44,43,44,174,194,194,58,59,194,194,194,58,59,194,194,43,44,43,44,174,194,194,194,194,194,194,194,194,194,43,44,43,44,174,194,194,194,194,194,194,194,122,121,174,174,
  </data>
 </layer>
</map>
