<?xml version="1.0" encoding="UTF-8"?>
<map version="1.2" tiledversion="1.2.0" orientation="orthogonal" renderorder="right-down" width="84" height="20" tilewidth="16" tileheight="16" infinite="0" nextlayerid="3" nextobjectid="1">
 <tileset firstgid="1" source="tiles.tsx"/>
 <layer id="1" name="Tile Layer 1" width="84" height="20">
  <data encoding="csv">
194,194,122,121,174,194,194,194,194,174,43,44,43,44,174,194,194,194,194,194,194,289,290,291,292,293,294,194,194,194,194,194,194,194,194,194,194,194,194,194,141,142,122,121,122,121,174,194,194,194,194,194,194,194,194,194,194,194,194,194,141,142,174,194,194,194,194,194,194,194,194,194,194,194,194,194,194,194,43,44,174,174,0,0,
194,194,121,122,303,303,194,194,94,95,101,102,41,42,174,194,194,194,194,194,194,309,310,311,312,313,314,194,194,194,194,194,194,194,194,194,194,194,194,194,174,174,141,142,141,142,96,97,194,194,194,194,194,194,194,194,194,194,94,95,142,121,174,194,194,194,194,194,194,194,194,194,194,194,303,303,194,194,41,42,174,174,0,0,
194,194,122,121,174,194,194,194,194,194,102,101,102,101,174,194,194,172,173,194,194,194,45,46,45,46,174,194,194,194,194,194,194,172,173,194,194,194,194,194,194,194,122,141,142,121,174,194,194,194,194,194,194,172,173,194,194,194,194,194,121,122,174,194,194,132,194,194,194,194,194,194,194,132,194,194,194,132,43,44,174,174,0,0,
194,194,121,122,303,303,194,194,194,194,174,163,164,174,174,194,194,192,193,194,194,194,41,42,41,42,174,194,194,194,194,14,194,192,193,194,14,194,194,194,194,194,174,163,164,174,174,194,194,12,13,194,194,192,193,194,194,12,13,194,174,174,174,194,194,152,194,194,194,194,194,194,194,152,303,303,194,152,41,42,174,174,0,0,
194,194,122,121,174,194,194,194,194,194,194,194,194,194,194,194,194,194,194,194,45,46,43,44,43,44,45,46,174,194,194,34,194,194,194,194,34,194,194,194,194,194,194,194,194,194,194,194,194,32,33,194,194,194,194,194,194,32,33,194,194,194,194,194,194,194,194,194,194,194,194,194,194,194,194,194,194,194,43,44,174,174,0,0,
194,194,41,42,303,303,194,194,194,194,194,194,194,194,194,194,194,194,194,194,41,42,41,42,41,42,41,42,174,194,194,54,194,194,194,194,54,194,194,194,194,194,194,194,194,194,194,194,194,52,53,194,194,194,194,194,194,52,53,194,194,194,194,194,194,194,194,194,194,194,194,194,194,194,303,303,194,194,41,42,174,174,194,194,
194,194,43,44,45,46,45,46,45,46,45,46,45,46,45,46,45,46,45,46,43,44,43,44,43,44,43,44,45,46,45,46,45,46,45,46,45,46,45,46,45,46,45,46,45,46,45,46,45,46,45,46,45,46,45,46,45,46,45,46,45,46,45,46,45,46,45,46,174,194,45,46,45,46,194,194,45,46,43,44,174,194,194,194,
194,194,41,42,41,42,41,42,41,42,41,42,41,42,41,42,61,62,41,42,41,42,41,42,41,42,41,42,41,42,41,42,41,42,41,42,41,42,41,42,41,42,41,42,41,42,41,42,41,42,41,42,41,42,41,42,41,42,41,42,41,42,41,42,41,42,41,42,41,42,41,42,41,42,303,303,41,42,41,42,41,42,174,194,
194,194,43,44,43,44,43,44,43,44,43,44,43,61,62,44,43,61,62,44,43,44,43,44,43,44,43,44,43,44,43,44,43,44,43,44,43,44,43,44,43,44,43,44,43,44,43,44,43,44,43,44,43,44,43,44,43,44,43,44,43,44,43,44,43,44,43,44,43,44,43,44,43,44,1,2,43,44,43,44,43,44,174,194,
0,0,0,0,0,0,0,0,0,0,0,0,0,0,0,0,0,0,0,0,0,0,0,0,0,0,0,0,0,0,0,0,0,0,0,0,0,0,0,0,0,0,0,0,0,0,0,0,0,0,0,0,0,0,0,0,0,0,0,0,0,0,0,0,194,194,194,194,41,42,41,42,41,42,21,22,41,42,41,42,41,42,174,194,
0,0,0,0,0,0,0,0,0,0,0,0,0,0,0,0,0,0,0,0,0,0,0,0,0,0,0,0,0,0,0,0,0,0,0,0,0,0,0,0,0,0,0,0,0,0,0,0,0,0,0,0,0,0,0,0,0,0,0,0,0,0,0,0,194,194,194,194,43,44,43,44,43,44,194,194,43,44,43,44,43,44,174,194,
0,0,0,0,0,0,0,0,0,0,0,0,0,0,0,0,0,0,0,0,0,0,0,0,0,0,0,0,0,0,0,0,0,0,0,0,0,0,0,0,0,0,0,0,0,0,0,0,0,0,0,0,0,0,0,0,0,0,0,0,0,0,0,0,194,194,194,194,41,42,174,165,166,174,303,303,174,174,174,174,41,42,174,194,
0,0,0,0,0,0,0,0,0,0,0,0,0,0,0,0,0,0,0,0,0,0,0,0,0,0,0,0,0,0,0,0,0,0,0,0,0,0,0,0,0,0,0,0,0,0,0,0,0,0,0,0,0,0,0,0,0,0,0,0,0,0,0,0,194,194,194,194,43,44,174,185,186,194,194,194,194,194,194,194,43,44,174,194,
0,0,0,0,0,0,0,0,0,0,0,0,0,0,0,0,0,0,0,0,0,0,0,0,0,0,0,0,0,0,0,0,0,0,0,0,0,0,0,0,0,0,0,0,0,0,0,0,0,0,0,0,0,0,0,0,0,0,0,0,0,0,0,0,194,194,194,194,41,42,174,194,194,194,303,303,194,194,194,194,41,42,174,194,
0,0,0,0,0,0,0,0,0,0,0,0,0,0,0,0,0,0,0,0,0,0,0,0,0,0,0,0,0,0,0,0,0,0,0,0,0,0,0,0,0,0,0,0,0,0,0,0,0,0,0,0,0,0,0,0,0,0,0,0,0,0,0,0,194,194,194,194,43,44,174,194,194,194,194,194,194,194,194,194,43,44,174,194,
0,0,0,0,0,0,0,0,0,0,0,0,0,0,0,0,0,0,0,0,0,0,0,0,0,0,0,0,0,0,0,0,0,0,0,0,0,0,0,0,0,0,0,0,0,0,0,0,0,0,0,0,0,0,0,0,0,0,0,0,0,0,0,0,194,194,194,194,41,42,174,194,194,194,303,303,194,194,194,194,174,174,174,194,
0,0,0,0,0,0,0,0,0,0,0,0,0,0,0,0,0,0,0,0,0,0,0,0,0,0,0,0,0,0,0,0,0,0,0,0,0,0,0,0,0,0,0,0,0,0,0,0,0,0,0,0,0,0,0,0,0,0,0,0,0,0,0,0,194,194,194,194,43,44,174,194,90,194,194,194,194,90,194,194,194,194,194,194,
0,0,0,0,0,0,0,0,0,0,0,0,0,0,0,0,0,0,0,0,0,0,0,0,0,0,0,0,0,0,0,0,0,0,0,0,0,0,0,0,0,0,0,0,0,0,0,0,0,0,0,0,0,0,0,0,0,0,0,0,0,0,0,0,194,194,194,194,41,42,174,194,110,194,303,303,194,110,194,194,194,194,194,194,
0,0,0,0,0,0,0,0,0,0,0,0,0,0,0,0,0,0,0,0,0,0,0,0,0,0,0,0,0,0,0,0,0,0,0,0,0,0,0,0,0,0,0,0,0,0,0,0,0,0,0,0,0,0,0,0,0,0,0,0,0,0,0,0,194,194,194,194,43,44,41,42,41,42,41,42,41,42,41,42,41,42,194,194,
0,0,0,0,0,0,0,0,0,0,0,0,0,0,0,0,0,0,0,0,0,0,0,0,0,0,0,0,0,0,0,0,0,0,0,0,0,0,0,0,0,0,0,0,0,0,0,0,0,0,0,0,0,0,0,0,0,0,0,0,0,0,0,0,194,194,194,194,194,194,43,44,43,44,43,44,43,44,43,44,43,44,194,194,
  </data>
 </layer>
</map>
