<?xml version="1.0" encoding="UTF-8"?>
<map version="1.2" tiledversion="1.2.0" orientation="orthogonal" renderorder="right-down" width="114" height="20" tilewidth="16" tileheight="16" infinite="0" nextlayerid="3" nextobjectid="1">
 <tileset firstgid="1" source="tiles.tsx"/>
 <layer id="1" name="Tile Layer 1" width="114" height="20">
  <data encoding="csv">
0,0,0,0,0,0,0,0,0,0,0,0,0,0,0,0,0,0,0,0,0,0,0,0,0,0,0,0,0,0,0,0,0,0,0,0,0,0,0,0,0,0,0,0,0,0,0,0,0,0,0,0,0,0,0,0,0,0,0,0,0,0,0,0,0,0,0,0,0,0,0,0,0,0,0,0,0,0,0,0,0,0,0,0,0,0,0,0,0,0,0,0,0,41,42,132,194,194,194,303,303,101,102,101,174,194,194,194,194,194,194,101,174,174,
0,0,0,0,0,0,0,0,0,0,0,0,0,0,0,0,0,0,0,0,0,0,0,0,0,0,0,0,0,0,0,0,0,0,0,0,0,0,0,0,0,0,0,0,0,0,0,0,0,0,0,0,0,0,0,0,0,0,0,0,0,0,0,0,0,0,0,0,0,0,0,0,0,0,0,0,0,0,0,0,0,0,0,0,0,0,0,0,0,0,0,0,0,42,41,152,194,194,194,194,194,102,101,102,174,194,194,194,194,194,194,42,174,174,
0,0,0,0,0,0,0,0,0,0,0,0,0,0,0,0,0,0,0,0,0,0,0,0,0,0,0,0,0,0,0,0,0,0,0,0,0,0,0,0,0,0,0,0,0,0,0,0,0,0,0,0,0,0,0,0,0,0,0,0,0,0,0,0,0,0,0,0,0,0,0,0,0,0,0,0,0,0,0,0,0,0,0,0,0,0,0,0,0,0,0,0,0,41,42,174,194,194,194,303,303,101,102,101,303,303,106,105,106,105,106,101,174,174,
174,174,174,174,174,174,174,174,174,174,174,174,174,174,174,174,174,174,174,174,174,174,174,174,174,174,174,174,174,174,174,174,174,174,174,174,174,174,174,174,174,174,174,174,174,174,174,174,174,174,174,174,174,0,0,0,0,0,0,0,0,0,0,0,0,0,0,0,0,0,0,0,0,0,0,0,0,0,0,0,0,0,0,0,0,0,0,0,0,0,0,0,0,42,41,174,194,194,194,194,194,102,101,102,194,194,102,101,102,101,102,101,174,174,
174,174,174,174,174,174,174,174,174,174,174,174,174,174,174,174,174,174,174,174,174,174,174,174,174,174,174,174,174,174,174,174,174,174,174,174,174,174,174,174,174,174,174,174,174,174,174,174,174,174,174,174,174,0,0,0,0,0,0,0,0,0,0,0,0,0,0,0,0,0,0,0,0,0,0,0,0,0,0,0,0,0,0,0,0,0,0,0,0,0,0,0,0,41,42,174,194,194,194,303,303,101,102,101,303,303,101,102,41,42,101,42,174,174,
174,174,174,174,174,174,174,174,174,174,174,174,174,174,174,174,174,174,174,174,174,174,174,174,174,174,174,174,174,174,174,174,174,174,174,174,174,174,174,174,174,174,174,174,174,174,174,174,174,174,174,174,174,0,0,0,0,0,0,0,0,0,0,0,0,0,0,0,0,0,0,0,0,0,0,0,0,0,0,0,0,0,0,0,0,0,0,0,0,0,0,0,0,42,41,174,194,194,194,194,194,102,101,102,194,194,174,165,166,174,93,101,174,174,
174,174,174,174,174,174,174,174,174,174,174,174,174,174,174,174,174,174,174,174,174,174,174,174,174,174,174,174,174,174,174,174,174,174,174,174,174,174,174,174,174,174,174,174,174,174,174,174,174,174,174,174,174,0,0,0,0,0,0,0,0,0,0,0,0,0,0,0,0,0,0,0,0,0,0,0,0,0,0,0,0,0,0,0,0,0,0,0,0,0,0,0,0,41,42,132,194,194,194,303,303,101,102,101,303,303,194,185,186,194,113,101,174,174,
174,174,174,174,174,174,174,174,174,174,174,174,174,174,174,174,174,174,174,174,174,174,174,174,174,174,174,174,174,174,174,174,174,174,174,174,174,174,174,174,174,174,174,174,174,174,174,174,174,174,174,174,174,0,0,0,0,0,0,0,0,0,0,0,0,0,0,0,0,0,0,0,0,0,0,0,0,0,0,0,0,0,0,0,0,0,0,0,0,0,0,0,0,42,41,152,194,194,194,194,194,102,101,102,194,194,194,194,194,194,194,102,174,174,
174,174,174,174,174,174,174,174,174,174,174,174,174,174,174,174,174,174,174,174,174,174,174,174,174,174,174,174,174,174,174,174,174,174,174,174,174,174,174,174,174,174,174,174,174,174,174,174,174,174,174,174,174,0,0,0,0,0,0,0,0,0,0,0,0,0,0,0,0,0,0,0,0,0,0,0,0,0,0,0,0,0,0,0,0,0,0,0,0,0,0,0,0,41,42,174,194,194,194,303,303,101,102,101,303,303,194,194,172,173,194,101,174,174,
174,174,174,174,174,174,174,174,174,174,174,174,174,174,174,174,174,174,174,174,174,174,174,174,174,174,174,174,174,174,174,174,174,174,174,174,174,174,174,174,174,174,174,174,174,174,174,174,174,102,101,102,101,0,0,0,0,0,0,0,0,0,0,0,0,0,0,0,0,0,0,0,0,0,0,0,0,0,0,0,0,0,0,0,0,0,0,0,0,0,0,0,0,42,41,174,194,194,194,194,194,102,101,102,194,194,194,194,192,193,194,102,174,174,
174,122,121,122,121,174,174,174,174,174,174,174,174,101,101,102,101,102,102,174,174,174,174,174,174,174,174,174,174,174,174,174,174,174,174,174,174,122,101,102,121,174,174,174,174,174,174,174,174,101,102,101,102,0,0,0,0,0,0,0,0,0,0,0,0,0,0,0,0,0,0,0,0,0,0,0,0,0,0,0,0,0,0,0,0,0,0,0,0,0,0,0,0,41,42,174,194,194,194,303,303,101,102,101,303,303,194,194,194,194,194,101,174,174,
174,121,122,121,122,174,174,174,174,174,174,174,174,101,102,101,102,101,102,174,174,174,174,174,174,174,174,174,174,174,174,174,174,174,174,174,174,101,102,101,102,105,106,105,106,105,106,105,106,102,101,102,101,0,0,0,0,0,0,0,0,0,0,0,0,0,0,0,0,0,0,0,0,0,0,0,0,0,0,0,0,0,0,0,0,0,0,0,0,0,0,0,0,42,41,174,194,194,194,194,194,102,101,102,194,194,194,194,194,194,194,42,174,174,
174,122,141,142,121,121,122,61,62,121,122,61,62,122,121,122,121,122,121,174,174,174,174,174,174,174,174,174,174,174,174,174,174,174,174,174,174,122,141,142,121,101,102,101,102,101,102,101,102,101,102,101,102,0,0,0,0,0,0,0,0,0,0,0,0,0,0,0,0,0,0,0,0,0,0,0,0,0,0,0,0,0,0,0,0,0,0,0,0,0,0,0,0,121,122,96,97,194,194,303,303,101,102,101,303,303,194,194,194,94,95,101,174,174,
174,121,122,121,122,174,174,174,174,174,174,174,174,121,122,141,142,121,122,121,122,121,122,121,122,121,122,121,122,121,122,121,122,121,122,121,122,141,142,121,122,174,174,174,174,174,174,165,166,174,174,102,101,0,0,0,0,0,0,0,0,0,0,0,0,0,0,0,0,0,0,0,0,0,0,0,0,0,0,0,0,0,0,0,0,0,0,0,0,0,0,0,0,122,121,174,194,194,194,194,194,102,101,102,194,194,194,132,194,194,194,102,174,174,
174,174,4,174,174,194,194,194,194,194,194,194,194,122,121,122,121,122,121,122,141,142,121,122,121,122,61,62,141,142,121,122,61,62,121,122,121,122,61,62,121,174,194,194,194,194,194,185,186,194,194,4,174,0,0,0,0,0,0,0,0,0,0,0,0,0,0,0,0,0,0,0,0,0,0,0,0,0,0,0,0,0,0,0,0,0,0,0,0,0,0,0,0,121,122,174,194,132,194,303,303,101,102,101,303,303,194,152,194,194,194,101,174,174,
174,194,24,194,194,194,194,194,194,194,194,194,194,121,122,141,142,121,122,174,174,174,174,114,115,174,174,174,174,174,174,174,174,114,115,174,122,61,62,61,62,174,194,132,194,194,194,194,194,194,194,24,194,0,0,0,0,0,0,0,0,0,0,0,0,0,0,0,0,0,0,0,0,0,0,0,0,0,0,0,0,0,0,0,0,0,0,0,0,0,0,0,0,122,63,174,194,152,194,194,194,102,101,102,194,194,194,194,194,194,194,102,174,174,
174,106,105,106,105,174,194,132,194,194,194,132,194,174,174,174,174,174,174,194,194,194,194,134,135,194,194,15,16,17,194,194,194,134,135,194,174,174,174,174,174,174,194,152,194,194,194,194,194,194,194,105,106,0,0,0,0,0,0,0,0,0,0,0,0,0,0,0,0,0,0,0,0,0,0,0,0,0,0,0,0,0,0,0,0,0,0,0,0,0,0,0,0,41,42,174,194,194,194,303,303,101,102,101,303,303,194,194,194,194,194,101,174,174,
174,101,102,101,102,174,194,152,194,194,194,152,194,194,194,194,194,194,194,194,194,194,194,154,155,194,194,35,36,37,194,194,194,154,155,194,194,194,194,194,194,194,194,194,194,194,194,194,194,194,194,101,102,0,0,0,0,0,0,0,0,0,0,0,0,0,0,0,0,0,0,0,0,0,0,0,0,0,0,0,0,0,0,0,0,0,0,0,0,0,0,0,0,42,41,303,303,194,194,194,194,102,101,102,194,194,194,194,194,194,194,42,174,174,
174,102,101,102,101,174,194,194,194,194,194,194,194,194,194,194,194,194,194,194,194,194,194,134,135,194,194,55,56,57,194,194,194,134,135,194,194,194,194,194,194,194,194,194,194,105,106,303,303,105,106,102,101,0,0,0,0,0,0,0,0,0,0,0,0,0,0,0,0,0,0,0,0,0,0,0,0,0,0,0,0,0,0,0,0,0,0,0,0,0,0,0,0,41,42,194,194,101,102,101,102,101,102,101,102,101,102,101,102,303,303,101,174,174,
174,101,102,101,102,174,194,194,194,194,194,282,194,194,194,194,194,71,194,194,194,71,194,134,135,194,194,75,76,77,194,194,194,134,135,194,194,71,139,140,194,71,194,71,194,101,102,174,174,101,102,101,102,0,0,0,0,0,0,0,0,0,0,0,0,0,0,0,0,0,0,0,0,0,0,0,0,0,0,0,0,0,0,0,0,0,0,0,0,0,0,0,0,42,41,303,303,174,174,174,93,42,41,42,101,92,174,174,174,194,194,101,174,174,
  </data>
 </layer>
</map>
