<?xml version="1.0" encoding="UTF-8"?>
<map version="1.2" tiledversion="1.2.0" orientation="orthogonal" renderorder="right-down" width="60" height="17" tilewidth="16" tileheight="16" infinite="0" nextlayerid="3" nextobjectid="1">
 <tileset firstgid="1" source="tiles.tsx"/>
 <layer id="1" name="Tile Layer 1" width="60" height="17">
  <data encoding="csv">
43,44,44,44,44,44,101,102,101,102,101,102,44,44,44,43,44,44,44,44,44,44,44,44,44,44,44,44,44,44,44,44,44,43,44,44,44,44,44,44,44,44,44,44,44,101,102,101,102,44,44,44,101,102,44,44,101,102,44,44,
43,44,174,174,174,174,174,174,174,174,174,174,174,174,43,44,174,174,114,115,174,114,115,174,174,174,174,114,115,174,114,115,174,174,174,174,174,174,114,115,174,11,174,174,174,174,114,115,174,174,174,174,174,174,114,115,174,174,43,44,
43,44,174,194,194,194,194,194,194,194,194,194,194,194,101,102,174,194,134,135,194,134,135,194,194,194,194,134,135,194,134,135,194,194,194,194,194,194,134,135,194,31,194,194,194,194,134,135,194,194,194,194,194,194,134,135,194,194,43,44,
101,102,174,194,194,194,194,194,194,194,194,194,194,194,43,44,174,194,154,155,194,154,155,194,194,194,194,154,155,194,154,155,194,194,194,194,194,194,154,155,194,31,194,194,194,194,154,155,194,194,194,194,194,194,154,155,194,194,43,44,
43,44,96,97,194,194,194,194,194,194,194,194,94,95,101,102,174,194,154,155,194,154,155,194,194,194,194,154,155,194,154,155,194,194,194,194,194,194,154,155,194,31,194,194,194,194,154,155,194,38,39,38,39,194,154,155,194,194,102,44,
101,102,174,194,194,194,194,194,194,194,194,194,194,194,43,44,174,194,134,135,194,134,135,194,194,194,194,134,135,194,134,135,194,194,172,173,194,194,134,135,194,31,194,194,194,194,134,135,194,58,59,58,59,194,134,135,194,194,101,102,
43,44,174,194,132,194,172,173,194,132,194,194,194,194,101,102,174,194,154,155,194,154,155,194,194,194,194,154,155,194,154,155,194,194,192,193,194,194,154,155,194,31,194,194,194,194,154,155,194,194,194,194,194,194,154,155,194,194,101,102,
101,102,174,194,152,194,192,193,194,152,194,194,194,194,43,44,174,194,134,135,194,134,135,194,194,194,194,134,135,194,134,135,194,194,194,194,194,194,134,135,194,31,43,101,102,44,134,135,194,194,194,194,194,194,134,135,194,194,43,44,
43,44,174,194,194,194,194,194,194,194,194,194,194,194,101,102,174,194,154,155,194,154,155,194,194,194,194,154,155,194,154,155,194,194,194,194,194,194,154,155,194,51,101,102,101,102,154,155,194,194,194,194,194,194,154,155,194,194,43,44,
101,102,174,194,194,194,194,194,194,194,194,194,194,194,174,174,174,194,134,135,194,134,135,194,90,194,194,134,135,194,134,135,194,194,90,194,194,194,134,135,43,44,43,44,43,44,43,44,174,90,194,194,90,194,134,135,194,194,43,44,
43,44,174,194,194,194,194,194,194,194,194,194,194,194,194,194,194,194,154,155,194,154,155,194,110,194,194,154,155,194,154,155,194,194,110,194,194,194,154,155,44,43,44,43,44,43,44,43,174,110,194,194,110,194,154,155,194,194,43,44,
43,44,43,44,43,44,303,303,43,44,43,101,102,44,43,44,43,44,43,44,43,44,101,102,101,102,44,43,101,102,44,43,44,43,101,102,101,102,44,43,44,44,43,44,43,44,43,101,102,101,102,101,102,101,102,44,43,44,43,44,
0,0,44,43,44,43,174,194,44,43,44,43,44,43,44,43,44,43,44,43,145,146,174,174,11,174,11,174,174,165,166,174,11,174,11,174,174,174,145,43,44,43,44,43,44,44,43,44,43,44,43,44,43,44,43,174,174,174,174,174,
0,0,43,44,43,44,303,303,43,44,92,174,174,174,174,44,43,44,43,44,145,146,174,194,31,194,31,194,194,185,186,194,31,194,31,194,194,194,141,44,43,43,44,43,44,43,101,102,44,43,44,43,44,43,44,174,174,0,0,0,
0,0,44,43,44,43,174,194,174,174,174,194,194,194,194,174,174,43,101,102,141,142,174,194,31,194,31,194,194,194,194,194,31,194,31,194,194,194,145,43,44,44,43,101,102,101,102,44,43,44,43,44,43,44,43,174,174,0,0,0,
0,0,43,44,43,44,303,303,194,194,194,194,194,194,194,194,194,44,43,44,145,146,174,194,31,194,31,194,194,194,194,194,31,194,31,194,194,194,141,101,102,92,174,174,174,174,174,165,166,174,93,43,44,43,44,174,174,0,0,0,
0,0,44,43,44,43,45,46,45,46,45,46,45,46,45,303,303,43,101,102,141,142,174,194,31,194,31,194,194,194,194,194,31,194,31,194,194,194,145,43,44,112,194,194,194,194,194,185,186,194,113,44,43,44,43,174,174,0,0,0,
  </data>
 </layer>
</map>
